findly-builder/apps/searchassist/src/assets/icons/sidemenu/new-icons/channels-active.svg

<svg width="14" height="14" viewBox="0 0 14 14" fill="none" xmlns="http://www.w3.org/2000/svg">
<path fill-rule="evenodd" clip-rule="evenodd" d="M11.8746 0.777832H2.1255C1.3807 0.777832 0.777832 1.38067 0.777832 2.12578V9.43719L0.77948 9.50453C0.8145 10.2183 1.40327 10.7851 2.1255 10.7851L5.08856 10.7848L6.55479 12.9839L6.58383 13.0236C6.80678 13.3011 7.24265 13.2879 7.44532 12.9839L8.91121 10.7848L11.8746 10.7851C12.6194 10.7851 13.2223 10.1823 13.2223 9.43719V2.12578C13.2223 1.38067 12.6194 0.777832 11.8746 0.777832ZM2.1255 1.84896H11.8746C12.0283 1.84896 12.1518 1.97239 12.1518 2.12578V9.43719C12.1518 9.59058 12.0283 9.71401 11.8746 9.71401H8.62491L8.57164 9.71666C8.41326 9.73249 8.269 9.81834 8.17964 9.95236L7.00005 11.7211L5.82047 9.95236C5.72118 9.80345 5.55411 9.71401 5.3752 9.71401H2.1255C1.97176 9.71401 1.84832 9.59058 1.84832 9.43719V2.12578C1.84832 1.97239 1.97176 1.84896 2.1255 1.84896ZM3.9893 5.32969C3.9893 5.69966 4.28837 5.99871 4.65836 5.99871C5.02835 5.99871 5.32741 5.69966 5.32741 5.32969C5.32741 4.95972 5.02835 4.66067 4.65836 4.66067C4.28837 4.66067 3.9893 4.95972 3.9893 5.32969ZM7.09563 5.99871C6.72565 5.99871 6.42658 5.69966 6.42658 5.32969C6.42658 4.95972 6.72565 4.66067 7.09563 4.66067C7.46562 4.66067 7.76469 4.95972 7.76469 5.32969C7.76469 5.69966 7.46562 5.99871 7.09563 5.99871ZM8.86385 5.32969C8.86385 5.69966 9.16292 5.99871 9.53291 5.99871C9.9029 5.99871 10.202 5.69966 10.202 5.32969C10.202 4.95972 9.9029 4.66067 9.53291 4.66067C9.16292 4.66067 8.86385 4.95972 8.86385 5.32969Z" fill="#0D6EFD"/>
</svg>

<svg width="14" height="14" fill="none" xmlns="http://www.w3.org/2000/svg"><path fill-rule="evenodd" clip-rule="evenodd" d="M11.875.778h-9.75C1.382.778.779 1.38.779 2.126v7.311l.001.068c.035.713.624 1.28 1.347 1.28H5.09l1.466 2.199.029.04a.535.535 0 0 0 .861-.04l1.466-2.2 2.964.001c.744 0 1.347-.603 1.347-1.348V2.126c0-.745-.603-1.348-1.347-1.348Zm-9.75 1.071h9.75c.153 0 .277.123.277.277v7.311a.276.276 0 0 1-.277.277h-3.25l-.053.003a.535.535 0 0 0-.392.235L7 11.722l-1.18-1.77a.535.535 0 0 0-.445-.238h-3.25a.276.276 0 0 1-.277-.277V2.126c0-.154.124-.277.278-.277Zm1.864 3.48a.668.668 0 1 0 1.337.002.668.668 0 0 0-1.337-.001ZM7.096 6a.668.668 0 1 1-.002-1.337A.668.668 0 0 1 7.096 6Zm1.768-.67a.668.668 0 1 0 1.337.002.668.668 0 0 0-1.337-.001Z" fill="#0D6EFD"/></svg>
